T: Gold March, The
M: 4/4
L: 1/8
K: Gmaj
|:D|GB2d cBAF|G2B2 D2EF|GFGB cBAG|FAEA D2dc|
B2BA G2AB|cBcd e2d2|BD (3BAB ADFA|1G2GF G2B:|2G2GF G2z||
|:A|Bcd2 ^cdgd|B2cB cdcA|F2GB cABG|AFD2 D>DD2|
GFEc EGc2|dBGD GB2B|BA (3Bcd ADFA|G2G FG3:|
